packages/foundations/assets/icons/functional/images/social/thumbs_down_24.svg

<svg width="24" height="24" viewBox="0 0 24 24" fill="none" xmlns="http://www.w3.org/2000/svg">
<g clip-path="url(#clip0_187_449)">
<path fill-rule="evenodd" clip-rule="evenodd" d="M15.7015 15.004C16.2145 16.056 16.7615 17.477 16.7615 18.75C16.7615 20.543 15.5225 22.001 13.9995 22.001C12.6625 22.001 12.2065 21.023 11.6275 19.785L11.4155 19.333C10.3485 17.086 8.27851 15.252 7.17651 14.382C6.74651 14.764 6.18651 15.004 5.56751 15.004H4.43151C3.09051 15.004 1.99951 13.913 1.99951 12.572V5.43598C1.99951 4.09398 3.09051 3.00298 4.43151 3.00298H5.56751C6.30251 3.00298 6.95351 3.33698 7.40051 3.85398C9.83651 3.17798 14.2045 1.99898 15.0005 1.99898C18.6055 1.99898 22.0005 7.07098 22.0005 11.003C22.0005 12.785 22.0005 15.003 19.0005 15.003L15.7015 15.004ZM5.99951 5.43598C5.99951 5.19798 5.80551 5.00298 5.56751 5.00298H4.43151C4.19351 5.00298 3.99951 5.19698 3.99951 5.43598V12.572C3.99951 12.81 4.19351 13.004 4.43151 13.004H5.56751C5.80551 13.004 5.99951 12.811 5.99951 12.572V5.43598ZM7.99951 5.76298V12.489C9.07551 13.289 11.8215 15.526 13.2215 18.475L13.4395 18.938C13.6555 19.401 13.9005 19.924 13.9995 20C14.2655 20 14.7615 19.57 14.7615 18.749C14.7615 17.332 13.6055 15.235 13.1605 14.547C12.9615 14.239 12.9465 13.847 13.1215 13.526C13.2965 13.204 13.6335 13.004 13.9995 13.004H18.9995C19.9615 13.004 19.9995 13.004 19.9995 11.004C19.9995 7.86198 17.2425 3.99998 15.0165 3.99998C14.4935 4.02998 11.1665 4.88798 7.99951 5.76298Z" fill="#1A1C1F"/>
</g>
<defs>
<clipPath id="clip0_187_449">
<rect width="24" height="24" fill="white"/>
</clipPath>
</defs>
</svg>

<svg xmlns="http://www.w3.org/2000/svg" width="24" height="24" fill="none"><g clip-path="url(#a)"><path fill="#1A1C1F" fill-rule="evenodd" d="M15.702 15.004c.513 1.052 1.06 2.473 1.06 3.746 0 1.793-1.24 3.251-2.763 3.251-1.337 0-1.793-.978-2.372-2.216l-.212-.452c-1.066-2.247-3.136-4.081-4.238-4.951-.43.382-.99.622-1.61.622H4.433A2.435 2.435 0 0 1 2 12.572V5.436a2.435 2.435 0 0 1 2.432-2.433h1.136c.735 0 1.386.334 1.833.851 2.436-.676 6.804-1.855 7.6-1.855 3.605 0 7 5.072 7 9.004 0 1.782 0 4-3 4zM6 5.436a.434.434 0 0 0-.432-.433H4.432A.433.433 0 0 0 4 5.436v7.136c0 .238.194.432.432.432h1.136A.43.43 0 0 0 6 12.572zm2 .327v6.726c1.076.8 3.822 3.037 5.222 5.986l.218.463c.216.463.46.986.56 1.062.265 0 .761-.43.761-1.251 0-1.417-1.155-3.514-1.6-4.202a1 1 0 0 1 .838-1.543h5c.963 0 1 0 1-2C20 7.862 17.244 4 15.018 4c-.524.03-3.85.888-7.017 1.763" clip-rule="evenodd"/></g><defs><clipPath id="a"><path fill="#fff" d="M0 0h24v24H0z"/></clipPath></defs></svg>
